!!!COM: Haydn, Franz Joseph
!!!OPR: String Quartet in G Minor
!!!ONM: Opus 20, No. 3
!!!OTL: Affettuoso 
!!!OMV: 1
!!!SCT: H III:33
!!!SCA: Thematisch-bibliographisches Werkevererzeichnis (A. van Hoboken)
!!!YOR: Pleyel Edition, volume 3
!!!EED: Frances Bennion
!!!ENC: Frances Bennion
!!!CDT: 1732/3/31/-1809/5/31/
!!!OCY: Österreich
!!!YEC: Copyright (c) 1994, 2000 Center for Computer Assisted Research in the Humanities
!!!YEM: Rights to all derivative editions reserved.
!!!YEM: Refer to licensing agreement for further details.
!!!YEN: United States of America
**kern	**kern	**kern	**kern
*k[b-e-]	*k[b-e-]	*k[b-e-]	*k[b-e-]
*g:	*g:	*g:	*g:
*clefF	*clefF	*clefC3	*clefF4
*M2/4	*M2/4	*M2/4	*M2/4
*tb32	*tb32	*tb32	*tb32
=0-	=0-	=0-	=0-
4.r	4.r	4.r	4.r
8g	8r	8G	8r
=1	=1	=1	=1
4.dd	8r	4.d	8r
.	8d	.	8B-
.	8c	.	8A
8ee-	8B-	8e-	8G
=2	=2	=2	=2
8dd	4.A	8d	4.F#
8cc#	.	8c#	.
8dd	.	8d	.
8cc	8f#	8c	8D
=3	=3	=3	=3
8b-	4g	8B-	8G
8a	.	8A	8D
8g	8r	8G	8E-
8cc	8c	8c	8C
=4	=4	=4	=4
4.d	4.d	4.D	[2D
8b-	[8b-	8G	.
=5	=5	=5	=5
8c	8b-]	8A	4.D]
8a	4a	8F#	.
8B-	.	8G	.
8g	[8g	8B-	8E-
=6	=6	=6	=6
8A	8g]	4e-	4C
8ee-	8cc	.	.
8dd	8b-	8r	8r
8f#	8a	8c	8D
=7	=7	=7	=7
4g	4g	4B-	8GG
.	.	.	8G
8r	4r	8r	8GG
8g	.	8G	8r
=8	=8	=8	=8
4.dd	8r	4.d	8r
.	8d	.	8B-
.	8c	.	8A
8ee-	8B-	8e-	8G
=9	=9	=9	=9
8dd	4.A	8d	4.F#
8cc#	.	8c#	.
8dd	.	8d	.
8cc	8f#	8c	8D
=10	=10	=10	=10
8b-	4g	8B-	8G
8a	.	8A	8D
8g	8r	8G	8E-
8ee-	8ee-	8g	8C
=11	=11	=11	=11
4.f	4ee-	8f	8D
.	.	16g	16D
.	.	16a	16C
.	[4dd	8b-	8D
8dd	.	8d	8BB-
=12	=12	=12	=12
8e-	8dd]	4e-	8C
8cc	4cc	.	8AA
8d	.	8d	8BB-
8b-	[8b-	8f	8D
=13	=13	=13	=13
8c	8b-]	4g	4.E-
8gg	8B-	.	.
8ee-	8g	8r	.
8cc	8e-	8g	8E-
=14	=14	=14	=14
4b-	4d	8f	8F
.	.	8F	8FF
8a	8c	8F	8FF
8f	8r	8r	8r
=15	=15	=15	=15
4.ff	4.a	2r	8FF
.	.	.	8F
.	.	.	8F
8gg	8b-	.	8F
=16	=16	=16	=16
8ff	8a	2r	8FF
8ee	8g	.	8F
8ff	8a	.	8F
8ee-	8cc	.	8F
=17	=17	=17	=17
4.dd	8b-	2r	8FF
.	4f	.	8F
.	.	.	8F
8ee-	8g	.	8F
=18	=18	=18	=18
8dd	8f	4.r	8FF
8cc#	8e	.	8F
8dd	8f	.	8F
8cc	8e-	8a	8F
=19	=19	=19	=19
2b-	8d	8b-	8FF
.	8e	8g	8F
.	8e	8g	8F
.	16d	16f	8F
.	16e	16g	.
=20	=20	=20	=20
8a	4f	8a	8FF
8ee-	.	8cc	8F
8ee-	4a	8cc	8F
16dd	.	16b-	8F
16ee-	.	16cc	.
=21	=21	=21	=21
8dd	4b-	8b-	8FF
8bb-	.	8g	8F
8bb-	4ee	8g	8F
16aa	.	16f	8F
16bb-	.	16g	.
=22	=22	=22	=22
8aa	8ff	8f	8FF
8ff	8a	8c	8F
8ff	8a	8c	8F
16gg	8b-	16e	8C
16ee	.	16g	.
=23	=23	=23	=23
8ff	8a	8f	8F
16gg	8b-	16e	8C
16ee	.	16g	.
8ff	8a	8f	8F
16gg	8b-	16e	8C
16ee	.	16g	.
=24	=24	=24	=24
8ff	8a	8f	8F
8r	8r	8r	8r
16a	16a	16a	16A
16b-	16b-	16b-	16B-
16a	16a	16a	16A
16b-	16b-	16b-	16B-
=25	=25	=25	=25
8cc	8cc	8cc	8c
8cc	8cc	8cc	8c
16cc	16cc	16cc	16c
16b-	16b-	16b-	16B-
16a	16a	16a	16A
16g	16g	16g	16G
=26	=26	=26	=26
4f	4f	4f	4F
4r	8r	4r	4r
.	8f	.	.
=27	=27	=27	=27
2r	4.dd	4.b-	8B-
.	.	.	8B-
.	.	.	8B-
.	8ee-	8cc	8B-
=28	=28	=28	=28
2r	8ff	8dd	8B-
.	8ee	8cc#	8B-
.	8ff	8dd	8B-
.	8ff#	8dd	8B-
=29	=29	=29	=29
16r	4gg	4ee-	8B-
16gg	.	.	.
8gg	.	.	8B-
8eee-	4ee-	4cc	8B-
8aa	.	.	8B-
=30	=30	=30	=30
4bb-	8dd	8b-	8B-
.	8ee-	8cc	8B-
4r	8ff	8dd	8B-
.	8ff#	8dd	8B-
=31	=31	=31	=31
16r	4gg	4ee-	8B-
16gg	.	.	.
8gg	.	.	8B-
8eee-	4ee-	4cc	8B-
8aa	.	.	8B-
=32	=32	=32	=32
4bb-	8dd	8b-	8B-
.	8ee-	8cc	8B-
4r	8ff	8dd	8B-
.	8ff#	8dd	8B-
=33	=33	=33	=33
16r	4gg	2ee-	8B-
16bb-	.	.	.
8bb-	.	.	8B-
8eee-	4aa	.	8B-
8ccc	.	.	8B-
=34	=34	=34	=34
16bb-	2bb-	[2dd	[2B-
16ccc	.	.	.
16bb-	.	.	.
16ccc	.	.	.
16ddd	.	.	.
16eee-	.	.	.
16ddd	.	.	.
16eee-	.	.	.
=35	=35	=35	=35
8fff	2aa-	2dd]	2B-_
8fff	.	.	.
8fff	.	.	.
8fff	.	.	.
=36	=36	=36	=36
8fff	2gg	2ee-	2B-]
8ggg	.	.	.
[4eee-	.	.	.
=37	=37	=37	=37
8eee-]	2ff	[2g	2B
8ddd	.	.	.
8ddd	.	.	.
[8ddd	.	.	.
=38	=38	=38	=38
8ddd]	2ee-	4.g]	4.c
8eee-	.	.	.
[4ccc	.	.	.
.	.	8f	8A
=39	=39	=39	=39
8ccc]	[2dd	4.f	4.B-
8ddd	.	.	.
8bb-	.	.	.
8ff	.	[8b-	8D
=40	=40	=40	=40
8gg	8dd]	8b-]	2E-
8.ggg	4cc	4cc	.
16eee-	.	.	.
16ccc	8cc	8g	.
16bb-	.	.	.
=41	=41	=41	=41
2aa	2cc	16f	8F
.	.	16f	.
.	.	8f	8F
.	.	16a	8F
.	.	16f	.
.	.	8f	8F
=42	=42	=42	=42
2ccc	2aa	16f	8E-
.	.	16f	.
.	.	8f	8E-
.	.	16a	8E-
.	.	16f	.
.	.	8f	8E-
=43	=43	=43	=43
2bb-	2bb-	16d	8D
.	.	16f	.
.	.	8f	8D
.	.	16b-	8D
.	.	16f	.
.	.	8f	8D
=44	=44	=44	=44
2ccc	2ccc	16c	8AA
.	.	16f	.
.	.	8f	8AA
.	.	16cc	8AA
.	.	16f	.
.	.	8f	8AA
=45	=45	=45	=45
8ddd	8bb-	4dd	4BB-
16fff	16ddd	.	.
16ddd	16bb-	.	.
16fff	16ddd	4r	4r
16ddd	16bb-	.	.
16fff	16ddd	.	.
16ddd	16bb-	.	.
=46	=46	=46	=46
2eee-	2ccc	8a	8F
.	.	16cc	16A
.	.	16a	16F
.	.	16cc	16A
.	.	16a	16F
.	.	16cc	16A
.	.	16a	16F
=47	=47	=47	=47
8ddd	8bb-	4b-	4B-
16fff	16ddd	.	.
16ddd	16bb-	.	.
16fff	16ddd	4r	4r
16ddd	16bb-	.	.
16fff	16ddd	.	.
16ddd	16bb-	.	.
=48	=48	=48	=48
2eee-	2ccc	8a	8F
.	.	16cc	16A
.	.	16a	16F
.	.	16cc	16A
.	.	16a	16F
.	.	16cc	16A
.	.	16a	16F
=49	=49	=49	=49
8ddd	8bb-	4b-	4B-
16fff	16ddd	.	.
16ddd	16bb-	.	.
16fff	16ddd	4r	4r
16ddd	16bb-	.	.
16fff	16ddd	.	.
16ddd	16bb-	.	.
=50	=50	=50	=50
8fff	4ddd	2r	2r
8ddd	.	.	.
8bb-	4r	.	.
8aa-	.	.	.
=51	=51	=51	=51
8ff	2r	2r	2r
8dd	.	.	.
8b-	.	.	.
8a-	.	.	.
=52	=52	=52	=52
2a-	2B	2F	2F
=53	=53	=53	=53
4g	4c	4G	8E-
.	.	.	8E-
4f	[4G	4B	8D
.	.	.	8D
=54	=54	=54	=54
4e-	4G]	4c	8C
.	.	.	8C
4g-	4d-	4r	8BB-
.	.	.	8BB-
=55	=55	=55	=55
4f	4c	4r	8AA
.	.	.	8AA
4e-	4A	4c	8FF
.	.	.	8FF
=56	=56	=56	=56
4d	[2B-	4B-	8GG
.	.	.	8GG
4a-	.	4F	8DD
.	.	.	8DD
=57	=57	=57	=57
4g	4B-]	4E-	8EE-
.	.	.	8EE-
8ee-	8g	4g	8EE-
8cc	8e-	.	8EE-
=58	=58	=58	=58
[2b-	2d	2f	[2FF
=59	=59	=59	=59
4b-]	2e-	4c	2FF]
8.cc	.	4A	.
16b-	.	.	.
=60	=60	=60	=60
4b-	4d	4B-	4GG
4ee 4g 4b-	4r	4r	4r
=61	=61	=61	=61
16ff	16a	8f	8F
16ee	16g	.	.
16ff	16a	4c	8F
16ee	16g	.	.
8ff	8a	.	8F
8gg	8b-	8e	8C
=62	=62	=62	=62
16ff	16a	8f	8F
16ee	16g	.	.
16ff	16a	4c	8F
16ee	16g	.	.
8ff	8a	.	8F
8gg	8b-	8e	8C
=63	=63	=63	=63
16ff	16a	8f	8F
16ee	16g	.	.
16ff	16a	4cc	8F
16ee	16g	.	.
8ff	8a	.	8F
8gg	8b-	8e	8C
=64	=64	=64	=64
4ff	4a	4f	4F
4r	4r	4r	4r
=65	=65	=65	=65
8ff 8b-	8b-	8f	8D
16ff 16b-	16b-	16f	16D
16b- 16ff	16b-	16f	16D
8ff 8b-	8b-	8f	8D
8bb- 8b- 8d	8b-	8f	8D
=66	=66	=66	=66
4ff 4b- 4d	4b-	4f	4D
4r	4r	4r	4r
=67	=67	=67	=67
16ff	2r	2r	2r
16ee	.	.	.
16ff	.	.	.
16ee	.	.	.
8ff	.	.	.
8gg-	.	.	.
=68	=68	=68	=68
16ff	2r	2r	2r
16ee	.	.	.
16ff	.	.	.
16ee	.	.	.
8ff	.	.	.
8gg-	.	.	.
=69	=69	=69	=69
16ff	2r	2r	2r
16ee	.	.	.
16ff	.	.	.
16ee	.	.	.
8ff	.	.	.
8bb-	.	.	.
=70	=70	=70	=70
2ff#	[2b-	[2B-	2D
=71	=71	=71	=71
8.gg	4b-]	4B-]	4E-
16ff	.	.	.
16ff	4r	4r	4r
16ee-	.	.	.
16r	.	.	.
16dd	.	.	.
=72	=72	=72	=72
16dd	2r	2r	2r
16cc	.	.	.
16r	.	.	.
16cc	.	.	.
16cc	.	.	.
16gg	.	.	.
16r	.	.	.
16ff	.	.	.
=73	=73	=73	=73
16ff	4r	4r	4r
16ee-	.	.	.
16r	.	.	.
16dd	.	.	.
16dd	4g	4c	4E-
16cc	.	.	.
16r	.	.	.
16cc	.	.	.
=74	=74	=74	=74
16cc	2r	2r	2r
16gg	.	.	.
16r	.	.	.
16ff	.	.	.
16ff	.	.	.
16ee-	.	.	.
16r	.	.	.
16dd	.	.	.
=75	=75	=75	=75
16dd	4g	4c	4E-
16cc	.	.	.
16r	.	.	.
16cc	.	.	.
16cc	4r	4r	4r
16gg	.	.	.
16r	.	.	.
16ff	.	.	.
=76	=76	=76	=76
16ff	2r	2r	2r
16ee-	.	.	.
16r	.	.	.
16dd	.	.	.
16dd	.	.	.
16cc	.	.	.
16r	.	.	.
16b-	.	.	.
=77	=77	=77	=77
16b-	4f	4c	4F
16a	.	.	.
4r	.	.	.
.	8r	8r	8r
24cc	24cc	24cc	24c
24a	24a	24a	24A
24f	24f	24f	24F
=78	=78	=78	=78
8e-	8e-	8e-	8E-
8e-	8e-	8e-	8E-
8.e-	8.e-	8.e-	8.E-
32d	32d	32d	32D
32e-	32e-	32e-	32E-
=79	=79	=79	=79
8d	8d	4d	4D
8bb-	8b-	.	.
8r	8r	4B-	4DD
8aa-	8a-	.	.
=80	=80	=80	=80
8ff#	8f#	4B-	4EE-
8gg	8g	.	.
8dd	8d	4r	4r
8ee-	8e-	.	.
=81	=81	=81	=81
[2b	[2B	2r	2r
=82	=82	=82	=82
8b]	8B]	2G	2E-
8cc	8c	.	.
8dd	8d	.	.
8ee-	8e-	.	.
=83	=83	=83	=83
[2b-	2d	2F	[2F
=84	=84	=84	=84
4b-]	2e-	4c	2F]
8.cc	.	4A	.
16b-	.	.	.
=85	=85	=85	=85
4b-	4d	4B-	4G
8r	8r	8r	8r
16d	16d	16d	16D
16e-	16e-	16e-	16E-
=86	=86	=86	=86
8f	8f	8f	8F
8f	8f	8f	8F
16f	16f	16f	16F
16e-	16e-	16e-	16E-
16d	16d	16d	16D
16c	16c	16c	16C
=87	=87	=87	=87
8B-	8B-	4B-	4BB-
8bb-	8b-	.	.
8r	8r	4B-	4DD
8aa-	8a-	.	.
=88	=88	=88	=88
8ff#	8f#	4B-	4EE-
8gg	8g	.	.
8dd	8d	4r	4r
8ee-	8e-	.	.
=89	=89	=89	=89
[2b	[2B	2r	2r
=90	=90	=90	=90
8b]	8B]	[2G	2E-
8cc	8c	.	.
8cc	8c	.	.
8cc	[8c	.	.
=91	=91	=91	=91
8cc	8c]	2G]	2EE-
8cc#	8c#	.	.
8cc#	8c#	.	.
8cc#	[8c#	.	.
=92	=92	=92	=92
8cc#	8c#]	[2F#	2DD
8dd	8d	.	.
8dd	8d	.	.
8dd	[8d	.	.
=93	=93	=93	=93
8dd	8d]	8F#]	[2CC
8ee-	8f#	8A	.
8ee-	8f#	8A	.
8ee-	8f#	8A	.
=94	=94	=94	=94
4ee-	4f#	4A	4CC]
8r	8r	8r	8r
8dd	8d	8r	8r
=95	=95	=95	=95
4.gg	4.g	2r	8r
.	.	.	8B-
.	.	.	8A
8bb-	8b-	.	8G
=96	=96	=96	=96
8aa	8a	4.r	4.F
8gg#	8g#	.	.
8aa	8a	.	.
8gg	8g	8C#	8E
=97	=97	=97	=97
8ff	8f	8D	8D
8ee	8e	8E	8E
8dd	8d	8F	8F
8gg	8g	8G	8G
=98	=98	=98	=98
4.a	4.A	4.A	2A
8ff	[8ff	8d	.
=99	=99	=99	=99
8g	8ff]	8e	2A
8ee	4ee	8c#	.
8f	.	8d	.
8dd	[8dd	8B	.
=100	=100	=100	=100
8e	8dd]	8c#	2AA
8cc#	8cc#	8A	.
8d	8dd	4G#	.
8b	8f	.	.
=101	=101	=101	=101
8c#	8e	8A	2AA
8a	8e	8C#	.
8B	8f	8D	.
8g#	8d	8F	.
=102	=102	=102	=102
8A	8c#	8E	8AA
8a	8a	8A	8A
8c#	8c#	8c#	8C#
8e	8e	8e	8E
=103	=103	=103	=103
8d	8d	8d	8D
8f	8f	8f	8F
8B-	8B-	8B-	8BB-
8g#	8g#	8g#	8G#
=104	=104	=104	=104
8A	8A	8A	8AA
8a	8a	8a	8A
8g#	8g#	8g#	8G#
8B-	8B-	8B-	8BB-
=105	=105	=105	=105
8A	8A	8A	8AA
8a	8a	8a	8A
8g#	8g#	8g#	8G#
8B-	8B-	8B-	8BB-
=106	=106	=106	=106
8A	8A	8A	8AA
8a	8a	8a	8A
4r	4r	4r	4r
=107	=107	=107	=107
4r	4r	4r	4r
16a	16a	16a	16A
16b-	16b-	16b-	16B-
16a	16a	16a	16A
16b-	16b-	16b-	16B-
=108	=108	=108	=108
8cc	8cc	8cc	8c
8cc	8cc	8cc	8c
16cc	16cc	16cc	16c
16b-	16b-	16b-	16B-
16a	16a	16a	16A
16g	16g	16g	16G
=109	=109	=109	=109
4f	4f	4f	4F
8r	4r	4r	4r
8f	.	.	.
=110	=110	=110	=110
4.ff	4.f	8r	8r
.	.	8f	8d
.	.	8e-	8c
8gg	8g	8d	8B-
=111	=111	=111	=111
8ff	8f	4c	4A
8ee	8e	.	.
8ff	8f	4r	4r
8ee-	8e-	.	.
=112	=112	=112	=112
4.dd	4.d	8r	8r
.	.	8d	8B-
.	.	8c	8A
8ee-	8e-	8B-	8G
=113	=113	=113	=113
8dd	8d	4A	4F#
8cc#	8c#	.	.
8dd	8d	4r	4r
8cc	8c	.	.
=114	=114	=114	=114
4.b-	4.B-	8r	8r
.	.	8B-	8G
.	.	8A-	8F
8cc	8c	8G	8E-
=115	=115	=115	=115
8b-	8B-	4F	4D
8a	8A	.	.
8b-	8B-	4r	4r
8a-	8A-	.	.
=116	=116	=116	=116
8g	8G	8r	8r
4gg	4g	8g	8e-
.	.	8f	8d
8aa-	8a-	8e-	8c
=117	=117	=117	=117
8gg	8g	4d	4B
8ff#	8f#	.	.
8gg	8g	4r	4r
8ff	8f	.	.
=118	=118	=118	=118
4.ee-	4.e-	8r	8r
.	.	8e-	8c
.	.	8d	8B-
8ff	8f	8c	8A-
=119	=119	=119	=119
8ee-	8e-	4B-	4G
8dd	8d	.	.
8ee-	8e-	8r	8r
8dd-	8d-	8B-	8E-
=120	=120	=120	=120
8cc	8c	4E-	4A-
8aa-	8cc	.	.
8ff	8a-	4r	8r
8ee-	8g	.	8A
=121	=121	=121	=121
2dd	16f	2f	8B-
.	16b-	.	.
.	8b-	.	8B-
.	16dd	.	8B-
.	16b-	.	.
.	8b-	.	8B-
=122	=122	=122	=122
2ff	16f	2d	8A-
.	16b-	.	.
.	8b-	.	8A-
.	16dd	.	8A-
.	16b-	.	.
.	8b-	.	8A-
=123	=123	=123	=123
2ee-	16e-	2e-	8G
.	16b-	.	.
.	8b-	.	8G
.	16ee-	.	8G
.	16b-	.	.
.	8b-	.	8G
=124	=124	=124	=124
2aa-	16f	2f	8D
.	16b-	.	.
.	8b-	.	8D
.	16ff	.	8D
.	16b-	.	.
.	8b-	.	8D
=125	=125	=125	=125
8gg	8gg	4B-	4E-
16bb-	16gg	.	.
16gg	16ee-	.	.
16bb-	16gg	4r	4r
16gg	16ee-	.	.
16bb-	16gg	.	.
16gg	16ee-	.	.
=126	=126	=126	=126
2aa-	2ff	8d	8B-
.	.	16f	16d
.	.	16d	16B-
.	.	16f	16d
.	.	16d	16B-
.	.	16f	16d
.	.	16d	16B-
=127	=127	=127	=127
8gg	8ee-	4e-	4e-
16bb-	16gg	.	.
16gg	16ee-	.	.
16bb-	16gg	4r	4r
16gg	16ee-	.	.
16bb-	16gg	.	.
16gg	16ee-	.	.
=128	=128	=128	=128
2aa-	2ff	8d	8B-
.	.	16f	16d
.	.	16d	16B-
.	.	16f	16d
.	.	16d	16B-
.	.	16f	16d
.	.	16d	16B-
=129	=129	=129	=129
8gg	8ee-	4e-	4e-
8eee-	8ee-	.	.
8r	8r	4e-	4G
8ddd-	8dd-	.	.
=130	=130	=130	=130
8bb	8b	4e-	4A-
8ccc	8cc	.	.
8gg	8g	4r	4r
8aa-	8a-	.	.
=131	=131	=131	=131
[2ee	[2e	2r	2r
=132	=132	=132	=132
8ee]	8e]	2c	2A-
8ff	8f	.	.
8gg	8g	.	.
8aa-	8a-	.	.
=133	=133	=133	=133
[2ee-	2g	2B-	[2B-
=134	=134	=134	=134
4ee-]	2a-	4f	2B-]
8.ff	.	4d	.
16ee-	.	.	.
=135	=135	=135	=135
8ee-	8g	4e-	4c
8eee-	8ee-	.	.
8r	8r	4e-	4G
8ddd-	8dd-	.	.
=136	=136	=136	=136
8bb	8b	4e-	4A-
8ccc	8cc	.	.
8gg	8g	4r	4r
8aa-	8a-	.	.
=137	=137	=137	=137
[2ee	[2e	2r	2r
=138	=138	=138	=138
8ee]	8e]	[2c	[2A-
8ff	8f	.	.
8gg	8g	.	.
8aa-	8a-	.	.
=139	=139	=139	=139
2ee-	[2f	2c]	2A-_
=140	=140	=140	=140
4dd	4f]	4B-	4A-]
8r	8r	4r	4r
8ee-	8e-	.	.
=141	=141	=141	=141
4.bb-	4.b-	8r	8r
.	.	8b-	8g
.	.	8a-	8f
8ccc	8cc	8g	8e-
=142	=142	=142	=142
8bb-	8b-	4f	4d
8aa	8a	.	.
8bb-	8b-	4r	4r
8aa-	8a-	.	.
=143	=143	=143	=143
4.gg	4.g	8r	8r
.	.	8g	8e-
.	.	8f	8d
8aa-	8a-	8e-	8c
=144	=144	=144	=144
8gg	8g	4d	4B
8ff#	8f#	.	.
8gg	8g	4r	4r
8ff	8f	.	.
=145	=145	=145	=145
4.r	4.r	4.r	4.r
16B	16B	16B	16BB
16c	16c	16c	16C
=146	=146	=146	=146
8d	8d	8d	8D
8d	8d	8d	8D
16d	16d	16d	16D
16c	16c	16c	16C
16B	16B	16B	16BB
16A	16A	16A	16AA
=147	=147	=147	=147
4G	4G	4G	4GG
8r	8r	4r	4r
8aa-	8a-	.	.
=148	=148	=148	=148
8gg	8g	2r	2r
8ff#	8f#	.	.
8gg	8g	.	.
8ff	8f	.	.
=149	=149	=149	=149
4.ee-	4.e-	8r	8r
.	.	8e-	8c
.	.	8d-	8B-
8ff	8f	8c	8A-
=150	=150	=150	=150
8ee-	8e-	4B-	4G
8dd	8d	.	.
8ee-	8e-	4r	4r
8dd-	8d-	.	.
=151	=151	=151	=151
4.r	4.r	4.r	4.r
16B-	16B-	16B-	16BB-
16A-	16A-	16A-	16AA-
=152	=152	=152	=152
8G	8G	8G	8GG
8G	8G	8G	8GG
8r	8r	4r	4r
8ff	8f	.	.
=153	=153	=153	=153
8ee-	8e-	2r	2r
8dd	8d	.	.
8ee-	8e-	.	.
8dd-	8d-	.	.
=154	=154	=154	=154
8cc	8c	8r	8r
8r	8r	8c	8A-
8ee-	8e-	8r	8r
8r	8r	8c	8A
=155	=155	=155	=155
8dd	8d	8r	8r
8r	8r	8d	8B-
8ff	8f	8r	8r
8r	8r	8d	8B
=156	=156	=156	=156
8ee-	8e-	8r	8r
8r	8r	8e-	8c
8gg	8g	8r	8r
8r	8r	8d	8B-
=157	=157	=157	=157
8ff#	8f#	8r	8r
8r	8f#	8c	8A
8aa	8r	8r	8r
8r	8e-	8c	8F#
=158	=158	=158	=158
8ccc	8r	8r	8r
8r	8e-	8A	8F#
8eee-	8r	8r	8r
8r	8c	8A	8F#
=159	=159	=159	=159
4.eee-	2r	2r	2r
8cc	.	.	.
=160	=160	=160	=160
8ccc	2r	2r	2r
8a	.	.	.
8aa	.	.	.
8f#	.	.	.
=161	=161	=161	=161
8ff#	4.r	4.r	4.r
8e-	.	.	.
8ee-	.	.	.
8d	8d	8d	8D
=162	=162	=162	=162
4.dd	4.dd	4.dd	4.d
16d	8d	8d	8D
16dd	.	.	.
=163	=163	=163	=163
16e-	8e-	8e-	8E-
16dd	.	.	.
16e	8e	8e	8E
16dd	.	.	.
16f	8f	8f	8F
16dd	.	.	.
16f#	8f#	8f#	8F#
16dd	.	.	.
=164	=164	=164	=164
16b-	4g	4g	4G
16d	.	.	.
16e	.	.	.
16f#	.	.	.
16g	4r	4r	4r
16a	.	.	.
16b-	.	.	.
16cc	.	.	.
=165	=165	=165	=165
4.dd	8r	4.d	8r
.	8d	.	8B-
.	8c	.	8A
8ee-	8B-	8e-	8G
=166	=166	=166	=166
8dd	4.A	8d	4.F#
8cc#	.	8c#	.
8dd	.	8d	.
8cc	8f#	8c	8D
=167	=167	=167	=167
8b-	4g	8B-	8G
8a	.	8A	8D
8g	8r	8G	8E-
8cc	8c	8c	8C
=168	=168	=168	=168
4.d	4.d	4.D	[2D
8b-	[8b-	8G	.
=169	=169	=169	=169
8c	8b-]	8A	4.D]
8a	4a	8F#	.
8B-	.	8G	.
8g	[8g	8B-	8E-
=170	=170	=170	=170
8A	8g]	4e-	4C
8ee-	8cc	.	.
8dd	8b-	8r	8r
8f#	8a	8c	8D
=171	=171	=171	=171
4.g	4g	4B-	8GG
.	.	.	8G
.	4r	8r	8GG
8g	.	8G	8r
=172	=172	=172	=172
4.dd	8r	4.d	8r
.	8d	.	8B-
.	8c	.	8A
8ee-	8B-	8e-	8G
=173	=173	=173	=173
8dd	4A	8d	4F#
8cc#	.	8c#	.
8dd	4r	8d	8r
8r	.	8r	8D
=174	=174	=174	=174
8r	8r	8r	4.d
8a	4f#	4a	.
8dd	.	.	.
8cc#	8g	8g	8e-
=175	=175	=175	=175
4dd	4f#	4a	8d
.	.	.	8c#
4r	4r	4r	8d
.	.	.	8D
=176	=176	=176	=176
8r	8r	8r	4.d
8a	4f#	4a	.
8dd	.	.	.
8cc#	8g	8g	8e-
=177	=177	=177	=177
4dd	4f#	4a	8d
.	.	.	8c#
4r	4r	4r	8d
.	.	.	8G
=178	=178	=178	=178
8r	8r	8r	4.g
8dd	4dd	4b	.
8gg	.	.	.
8ff#	8cc	8cc	8a-
=179	=179	=179	=179
4gg	4dd	4b	8g
.	.	.	8f#
4r	4r	4r	8g
.	.	.	8G
=180	=180	=180	=180
8r	8r	8r	4.g
8dd	4dd	4b	.
8gg	.	.	.
8ff#	8cc	8cc	8a-
=181	=181	=181	=181
4gg	4dd	4b	8g
.	.	.	8f#
8r	8r	8r	8g
8b	8d	[8g	8f
=182	=182	=182	=182
4cc	4c	4g]	8e-
.	.	.	8d
8r	8r	8r	8e-
8dd	8b	[8g	8d
=183	=183	=183	=183
4ee-	4cc	4g]	8c
.	.	.	8B
8r	8r	8r	8c
8ee	[8cc	8g	8B-
=184	=184	=184	=184
4ff	4cc]	4a-	8A-
.	.	.	8G
8r	8r	8r	8A-
8gg	8ee	[8cc	8G
=185	=185	=185	=185
4aa-	4ff	4cc]	8F
.	.	.	8E
8r	8r	8r	8F
8aa-	8ff	8cc	8E-
=186	=186	=186	=186
8r	8r	8r	8D
8aa-	8ff	8b-	8DD
8r	8r	8r	8EE-
8gg	8ee-	8b-	8E-
=187	=187	=187	=187
8r	8r	8r	8C
8gg	8ee-	8a-	8CC
8r	8r	8r	8DD
8ff	8dd	8a-	8D
=188	=188	=188	=188
8r	8r	8r	8BB
8ff	8dd	8g	8B
8r	8r	8r	8C
8ee-	8cc	8g	8c
=189	=189	=189	=189
8r	8r	8r	8AA
8ff#	8ee-	8cc	8A
8r	8r	8r	8GG
8gg	8ee-	8cc	8G
=190	=190	=190	=190
16ccc	2dd	16a	8FF#
16aa	.	16cc	.
16ccc	.	16a	8F#
16aa	.	16cc	.
16ccc	.	16a	8F#
16aa	.	16cc	.
16ccc	.	16a	8F#
16aa	.	16cc	.
=191	=191	=191	=191
16bb-	2dd	4b-	8GG
16gg	.	.	.
16bb-	.	.	8G
16gg	.	.	.
16bb-	.	4r	8G
16gg	.	.	.
16bb-	.	.	8G
16gg	.	.	.
=192	=192	=192	=192
8r	8r	8r	8CC
8aa-	8ee-	8c	8C
8r	8r	8r	8CC#
8gg	8b-	8c#	8C#
=193	=193	=193	=193
8r	8r	8r	8DD
8ff#	8a	8d	8D
8r	8r	8r	8EE-
8cc#	8g	8e-	8E-
=194	=194	=194	=194
8dd	8f#	8d	8DD
8d	8d	8d	8D
8e-	8e-	8e-	8E-
8cc#	8cc#	8cc#	8c#
=195	=195	=195	=195
8dd	8dd	8dd	8d
8d	8d	8d	8D
8e-	8e-	8e-	8E-
8cc#	8cc#	8cc#	8c#
=196	=196	=196	=196
8dd	8dd	8dd	8d
8d	8d	8d	8D
8e-	8e-	8e-	8E-
8cc#	8cc#	8cc#	8c#
=197	=197	=197	=197
8dd	8dd	8dd	8d
8d	8d	8d	8D
4r	4r	4r	4r
=198	=198	=198	=198
4.r	2r	2r	2r
8ccc	.	.	.
=199	=199	=199	=199
8aa	2r	2r	2r
8ff#	.	.	.
8ee-	.	.	.
8cc	.	.	.
=200	=200	=200	=200
8a	2r	2r	2r
8f#	.	.	.
8e-	.	.	.
8e-	.	.	.
=201	=201	=201	=201
2e-	2A	2F#	2C
=202	=202	=202	=202
4d	4B-	4G	8BB-
.	.	.	8BB-
4c	4f#	4A	8AA
.	.	.	8AA
=203	=203	=203	=203
4B-	4g	4B-	8GG
.	.	.	8GG
4g	4d	4G	8BB-
.	.	.	8BB-
=204	=204	=204	=204
4e-	4G	4c	8C
.	.	.	8C
8.cc	8.e-	4C	8C
.	.	.	8C
16a	16c	.	.
=205	=205	=205	=205
[2g	2B-	2D	2D
=206	=206	=206	=206
4g]	2c	4A	2D
8.a	.	4F#	.
16g	.	.	.
=207	=207	=207	=207
4g	4B-	4G	4E-
4cc#	4g	4e-	4r
=208	=208	=208	=208
16dd	16f#	8d	8D
16cc#	16e	.	.
16dd	16f#	4A	8D
16cc#	16e	.	.
8dd	8f#	.	8D
8a	8e	8c#	8A
=209	=209	=209	=209
16dd	16f#	8d	8D
16cc#	16e	.	.
16dd	16f#	4A	8D
16cc#	16e	.	.
8dd	8f#	.	8D
8a	8e	8c#	8A
=210	=210	=210	=210
16dd	16f#	8d	8D
16cc#	16e	.	.
16dd	16f#	4A	8D
16cc#	16e	.	.
8dd	8f#	.	8D
8a	8e	8c#	8A
=211	=211	=211	=211
4dd	4f#	4d	4D
4r	4r	4r	4r
=212	=212	=212	=212
8ee- 8A 8f#	8a	8f#	8C
16ee- 16f#	16a	16f#	16C
16ee- 16f#	16a	16f#	16C
8ee- 8f#	8a	8f#	8C
8ee- 8f#	8a	8f#	8C
=213	=213	=213	=213
4ee- 4f#	4a	4f#	4C
4r	4r	4r	4r
=214	=214	=214	=214
16cc	2r	2r	2r
16b	.	.	.
16cc	.	.	.
16b	.	.	.
8cc	.	.	.
8ee-	.	.	.
=215	=215	=215	=215
16cc	2r	2r	2r
16b	.	.	.
16cc	.	.	.
16b	.	.	.
8cc	.	.	.
8ee-	.	.	.
=216	=216	=216	=216
16cc	2r	2r	2r
16b	.	.	.
16cc	.	.	.
16b	.	.	.
8cc	.	.	.
8ee-	.	.	.
=217	=217	=217	=217
2f#	2e-	2A	2C
=218	=218	=218	=218
16g	4d	4B-	4BB-
16dd	.	.	.
16r	.	.	.
16cc	.	.	.
16cc	4r	4r	4r
16b-	.	.	.
16r	.	.	.
16a	.	.	.
=219	=219	=219	=219
16a	2r	2r	2r
16g	.	.	.
16r	.	.	.
16g	.	.	.
16g	.	.	.
16ee-	.	.	.
16r	.	.	.
16dd	.	.	.
=220	=220	=220	=220
16dd	4r	4r	4r
16cc	.	.	.
16r	.	.	.
16b-	.	.	.
16b-	4e-	4A-	4C
16a-	.	.	.
16r	.	.	.
16a-	.	.	.
=221	=221	=221	=221
16a-	2r	2r	2r
16ff	.	.	.
16r	.	.	.
16ee-	.	.	.
16ee-	.	.	.
16dd	.	.	.
16r	.	.	.
16cc	.	.	.
=222	=222	=222	=222
16cc	4f	4B	4D
16b	.	.	.
16r	.	.	.
16b	.	.	.
16b	4r	4r	4r
16gg	.	.	.
16r	.	.	.
16ff	.	.	.
=223	=223	=223	=223
16ff	4r	4r	4r
16ee-	.	.	.
16r	.	.	.
16dd	.	.	.
16dd	4g	4c	4E-
16cc	.	.	.
16r	.	.	.
16cc	.	.	.
=224	=224	=224	=224
16cc	2r	2r	2r
16gg	.	.	.
16r	.	.	.
16ff	.	.	.
16ff	.	.	.
16ee-	.	.	.
16r	.	.	.
16dd	.	.	.
=225	=225	=225	=225
16dd	4g	4B-	4E-
16cc#	.	.	.
16r	.	.	.
16cc#	.	.	.
16cc#	4r	4r	4r
16bb-	.	.	.
16r	.	.	.
16aa	.	.	.
=226	=226	=226	=226
16aa	4r	4r	4r
16gg	.	.	.
16r	.	.	.
16ff#	.	.	.
16ff#	4a	4c	4D
16eee-	.	.	.
16r	.	.	.
16ddd	.	.	.
=227	=227	=227	=227
16ddd	2r	2r	2r
16ccc	.	.	.
16r	.	.	.
16bb-	.	.	.
16bb-	.	.	.
16aa	.	.	.
16r	.	.	.
16gg	.	.	.
=228	=228	=228	=228
16gg	2r	2r	2r
16ff#	.	.	.
16r	.	.	.
16ee-	.	.	.
16ee-	.	.	.
16dd	.	.	.
16r	.	.	.
16cc	.	.	.
=229	=229	=229	=229
16cc	4f#	4A	4D
16aa	.	.	.
16r	.	.	.
16gg	.	.	.
16gg	4r	4r	4r
16ff#	.	.	.
16r	.	.	.
16ee-	.	.	.
=230	=230	=230	=230
16ee-	4r	4r	4r
16dd	.	.	.
16r	.	.	.
16cc	.	.	.
16cc	4f#	4A	4D
16aa	.	.	.
16r	.	.	.
16gg	.	.	.
=231	=231	=231	=231
16gg	2r	2r	2r
16ff#	.	.	.
16r	.	.	.
16ee-	.	.	.
16ee-	.	.	.
16dd	.	.	.
16r	.	.	.
16cc	.	.	.
=232	=232	=232	=232
16cc	4f#	4A	4D
16aa	.	.	.
8r	.	.	.
8.r	4r	4r	4r
16cc	.	.	.
=233	=233	=233	=233
4cc	4f#	4A	4D
4aa	4r	4r	4r
=234	=234	=234	=234
4r	4r	4r	4r
8r	8r	8r	8r
8ddd	8dd	8r	8r
=235	=235	=235	=235
8aa	8a	2r	2r
8bb-	8b-	.	.
8ff#	8f#	.	.
8gg	8g	.	.
=236	=236	=236	=236
[2ee-	[2e-	16a	8C
.	.	16f#	.
.	.	16a	8C
.	.	16f#	.
.	.	16a	8C
.	.	16f#	.
.	.	16a	8C
.	.	16f#	.
=237	=237	=237	=237
8ee-]	8e-]	4a	4C
8cc	8c	.	.
8b-	8B-	4r	4r
8a	8A	.	.
=238	=238	=238	=238
[2g	2B-	2D	[2D
=239	=239	=239	=239
4g]	2c	4A	2D]
8.a	.	4F#	.
16g	.	.	.
=240	=240	=240	=240
4g	4B-	4G	4E-
8r	8r	8r	8r
16B-	16B-	16B-	16BB-
16c	16c	16c	16C
=241	=241	=241	=241
8d	8d	8d	8D
8d	8d	8d	8D
16d	16d	16d	16D
16c	16c	16c	16C
16B-	16B-	16B-	16BB-
16A	16A	16A	16AA
=242	=242	=242	=242
8G	8G	4G	4GG
8gg	8g	.	.
8r	8r	4d	4BB
8ff	8f	.	.
=243	=243	=243	=243
8dd	8d	4c	4C
8ee-	8e-	.	.
8b	8B	4r	4r
8cc	8c	.	.
=244	=244	=244	=244
4.a-	16A-	2c	2CC
.	16e-	.	.
.	16A-	.	.
.	16e-	.	.
.	16A-	.	.
.	16e-	.	.
16cc	16A-	.	.
16a-	16e-	.	.
=245	=245	=245	=245
8.e-	16A-	2c	2CC
.	16e-	.	.
.	16A-	.	.
32a-	16e-	.	.
32e-	.	.	.
8.c	16A-	.	.
.	16e-	.	.
.	16A-	.	.
32e-	16e-	.	.
32c	.	.	.
=246	=246	=246	=246
4A-	4A-	4c	4CC
4r	4r	4r	4r
=247	=247	=247	=247
4g	4B-	4e	4CC#
8r	4r	4r	4r
8d	.	.	.
=248	=248	=248	=248
8e-	2r	2r	2r
8e	.	.	.
8f	.	.	.
8f#	.	.	.
=249	=249	=249	=249
[2g	2B-	2D	[2DD
=250	=250	=250	=250
4g]	2c	4A	2DD]
8.a	.	4F#	.
16g	.	.	.
=251	=251	=251	=251
4g	4B-	4G	4GG
8r	4r	8r	4r
8g	.	8G	.
=252	=252	=252	=252
4.dd	8r	4.d	8r
.	8d	.	8B-
.	8c	.	8A
8ee-	8B-	8e-	8G
=253	=253	=253	=253
8dd	4.A	8d	4.F#
8cc#	.	8c#	.
8dd	.	8d	.
8r	8e-	8B-	8G
=254	=254	=254	=254
4.r	8d	4.A	4F#
.	8c#	.	.
.	8d	.	4r
8ee-	8b-	8g	.
=255	=255	=255	=255
8dd	4.a	4.f#	4.r
8cc#	.	.	.
8dd	.	.	.
8r	8e-	8B-	8G
=256	=256	=256	=256
4.r	8d	4.A	4F#
.	8c#	.	.
.	8d	.	4r
8ee-	8b-	8g	.
=257	=257	=257	=257
8dd	4a	4f#	4.r
8cc#	.	.	.
8dd	4r	4r	.
8r	.	.	8e-
=258	=258	=258	=258
4.r	4.r	2r	8d
.	.	.	8c#
.	.	.	8d
8bb-	8gg	.	8r
=259	=259	=259	=259
8aa	8ff#	2r	2r
8gg	8ee-	.	.
8ff#	8dd	.	.
8ee-	8cc	.	.
=260	=260	=260	=260
[2ee-	[2cc	4.r	2r
.	.	8cc	.
=261	=261	=261	=261
2ee-_	2cc_	8b-	2r
.	.	8a	.
.	.	8g	.
.	.	8f#	.
=262	=262	=262	=262
2ee-_	2cc_	[2f#	4.r
.	.	.	8e-
=263	=263	=263	=263
2ee-_	2cc_	2f#_	8d
.	.	.	8c
.	.	.	8B-
.	.	.	8A
=264	=264	=264	=264
2ee-_	2cc_	2f#_	[2A
=265	=265	=265	=265
4ee-]	2cc_	2f#_	2A_
[4dd	.	.	.
=266	=266	=266	=266
2dd]	2cc_	2f#_	2A_
=267	=267	=267	=267
4.dd	2cc]	2f#]	2A]
32ee	.	.	.
32ff#	.	.	.
32gg	.	.	.
32aa	.	.	.
=268	=268	=268	=268
4bb-	4b-	4g	4G
4r	4r	4r	4r
=269	=269	=269	=269
4f#	4A	4d	4D
4r	4r	4r	4r
=270	=270	=270	=270
4g	4B-	4d	4GG
4r	4r	4r	4r
==	==	==	==
*-	*-	*-	*-
!!!RWG1: This file contains only pitch and duration data.
!!!RWG2: Transposing instruments are not transposed.
!!!RWG3: Spines may have incompatible meters.
!!!RWG4: Durations of rests and tied notes may be interpreted.
!!!RWG: Key is interpreted using the Humdrum key tool.
!!!GTL: 6 Divertimentos ("Sun")
!!!AFT: stage1
!!!END: 1997/04/15
!!format changes:
!!content changes:
!!public access: complete
!!!KEY: 2324949656
!!!EMD: Converted from MuseData to Humdrum Dec 16, 2000, by Andreas Kornstaedt using muse2kern.
